X:163
T:Waits. (p)1657.PLFD1.163, The
M:6/4
L:1/4
Q:3/4=70
S:Playford, Dancing Master,Supplement to 3rd Ed.,1657
O:England;London
H:1657.
Z:Chris Partington.
K:Bb
BGGF2A|B/c/ddf2F|BGGF2A|B/c/ddc2B:|
|:Bcdc2B|c/B/cdB3|(B/A/)(B/c/)(d/e/)c2B|c/B/cdg3:|
